X:200
T:Never Believe 'Em. THO5.200
M:2/4
L:1/8
B:Thompson's Complete Collection of 200 Favourite Dances Vol.5
F:https://www.libraryofdance.org/manuals/1780c-Thompson-Compleat-5.pdf
Z:vmp. Peter Dunk 2024
Q:1/4=120
K:A
e/d/|cAAA|BEEE|ABcd |c2 Be/d/|
cAAA|BEEd|cBAG|A2-!fine!A:|
|:e|fdaf|eAAe|f>g {b/}ag/f/|eAAe|
dEEE|cEEE|decd|c2 B!D.C.!:|
W:
W:First Lady cast off 1 Couple & go into the 2nd Gents place
W:her Partner follow her into the 2nd Lady's place ./.
W:the 1st Gent cast up 1 Couple,
W:his Partner follow him and go to proper places ./:
W:cross over 1 Couple & turn :/.
W:right and left at top :/:


